hosted/jarek/toggles-jarek-spec-previews/assets/icn/close.svg

<?xml version="1.0" encoding="UTF-8"?>
<svg width="9px" height="9px" viewBox="0 0 9 9" version="1.1" xmlns="http://www.w3.org/2000/svg" xmlns:xlink="http://www.w3.org/1999/xlink">
    <!-- Generator: Sketch 57.1 (83088) - https://sketch.com -->
    <title>icn/close</title>
    <desc>Created with Sketch.</desc>
    <defs>
        <path d="M5.90313382,4.5 L8.70940147,7.30626765 C9.09686618,7.69373235 9.09686618,8.32193676 8.70940147,8.70940147 C8.32193676,9.09686618 7.69373235,9.09686618 7.30626765,8.70940147 L4.5,5.90313382 L1.69373235,8.70940147 C1.30626765,9.09686618 0.678063236,9.09686618 0.29059853,8.70940147 C-0.0968661766,8.32193676 -0.0968661766,7.69373235 0.29059853,7.30626765 L3.09686618,4.5 L0.29059853,1.69373235 C-0.0968661766,1.30626765 -0.0968661766,0.678063236 0.29059853,0.29059853 C0.678063236,-0.0968661766 1.30626765,-0.0968661766 1.69373235,0.29059853 L4.5,3.09686618 L7.30626765,0.29059853 C7.69373235,-0.0968661766 8.32193676,-0.0968661766 8.70940147,0.29059853 C9.09686618,0.678063236 9.09686618,1.30626765 8.70940147,1.69373235 L5.90313382,4.5 Z" id="path-1"></path>
    </defs>
    <g id="Page-1" stroke="none" stroke-width="1" fill="none" fill-rule="evenodd" opacity="0.400000006">
        <g id="Artboard" transform="translate(-954.000000, -413.000000)">
            <g id="Group-6" transform="translate(67.000000, 64.000000)">
                <g id="Group-4" transform="translate(585.000000, 0.000000)">
                    <g id="Group-Copy-3" transform="translate(0.000000, 222.000000)">
                        <g id="Group-2-Copy-3" transform="translate(140.000000, 119.000000)">
                            <g id="global-components/toggle--off" transform="translate(154.000000, 0.000000)">
                                <g id="icn/close" transform="translate(8.000000, 8.000000)">
                                    <mask id="mask-2" fill="white">
                                        <use xlink:href="#path-1"></use>
                                    </mask>
                                    <g id="Combined-Shape"></g>
                                    <g id="c-fill/greys/$grey-600-::-919191" mask="url(#mask-2)" fill="#919191">
                                        <g transform="translate(-3.000000, -3.000000)" id="fill/greys/$grey-600-::-919191">
                                            <rect x="0" y="0" width="15" height="15"></rect>
                                        </g>
                                    </g>
                                </g>
                            </g>
                        </g>
                    </g>
                </g>
            </g>
        </g>
    </g>
</svg>

<svg width="9" height="9" xmlns="http://www.w3.org/2000/svg" xmlns:xlink="http://www.w3.org/1999/xlink"><defs><path d="M5.9031 4.5l2.8063 2.8063c.3875.3874.3875 1.0156 0 1.4031-.3875.3875-1.0157.3875-1.4031 0L4.5 5.9031 1.6937 8.7094c-.3874.3875-1.0156.3875-1.4031 0-.3875-.3875-.3875-1.0157 0-1.4031L3.0969 4.5.2906 1.6937c-.3875-.3874-.3875-1.0156 0-1.4031.3875-.3875 1.0157-.3875 1.4031 0L4.5 3.0969 7.3063.2906c.3874-.3875 1.0156-.3875 1.4031 0 .3875.3875.3875 1.0157 0 1.4031L5.9031 4.5z" id="a"/></defs><g fill="none" fill-rule="evenodd"><mask id="b" fill="#fff"><use xlink:href="#a"/></mask><g mask="url(#b)" fill="#919191"><path d="M-3-3h15v15H-3z"/></g></g></svg>
